gama.ui.shared/icons_svg/light/display/action.update.svg

<svg height="25" viewBox="-872.5 -3768.755 25 25" width="25" xmlns="http://www.w3.org/2000/svg"><g fill="none"><circle cx="-860" cy="-3756.255" fill="#fff" r="12"/><circle cx="-860" cy="-3756.255" r="12" stroke="#000" stroke-linecap="round" stroke-linejoin="round" stroke-width=".25"/><path d="m-861.4467-3754.6994h2.8934l-.6145-2.45c-.2644.07-.5444.1166-.8322.1166s-.5678-.0389-.8322-.1166zm-.8011 0 .6845-2.7534c-.9256-.5366-1.5478-1.54-1.5478-2.6912 0-1.7188 1.3922-3.111 3.1111-3.111s3.1111 1.3922 3.1111 3.111c0 1.1512-.6222 2.1546-1.5478 2.6912l.6845 2.7534h2.8077c1.0734 0 1.9445.8711 1.9445 1.9444v1.5556c0 .2177-.1711.3889-.3889.3889h-13.2222c-.2178 0-.3889-.1712-.3889-.3889v-1.5556c0-1.0733.8711-1.9444 1.9444-1.9444zm2.2478-3.1111c1.2911 0 2.3333-1.0423 2.3333-2.3335 0-1.291-1.0422-2.333-2.3333-2.333s-2.3333 1.042-2.3333 2.333c0 1.2912 1.0422 2.3335 2.3333 2.3335zm6.2222 6.2222v-1.1667c0-.6455-.5211-1.1667-1.1667-1.1667h-10.1111c-.6455 0-1.1666.5212-1.1666 1.1667v1.1667zm-12.8333 2.3333c-.2178 0-.3889-.171-.3889-.389 0-.2177.1711-.3888.3889-.3888h13.2222c.2178 0 .3889.1711.3889.3888 0 .218-.1711.389-.3889.389z" fill="#66727e"/></g></svg>

<?xml version="1.0" encoding="UTF-8" standalone="no"?>
<!DOCTYPE svg PUBLIC "-//W3C//DTD SVG 1.1//EN" "http://www.w3.org/Graphics/SVG/1.1/DTD/svg11.dtd">
<svg version="1.1" xmlns="http://www.w3.org/2000/svg" xmlns:xl="http://www.w3.org/1999/xlink" xmlns:dc="http://purl.org/dc/elements/1.1/" viewBox="-872.5 -3768.755 25.000035 25" width="25.000035" height="25">
  <defs/>
  <g id="SOURCES" stroke-dasharray="none" fill="none" stroke="none" fill-opacity="1" stroke-opacity="1">
    <title>SOURCES</title>
    <g id="SOURCES_Calque_2">
      <title>Calque 2</title>
      <g id="Group_8998">
        <g id="Graphic_8941">
          <circle cx="-860" cy="-3756.255" r="12.0000278184555" fill="white"/>
          <circle cx="-860" cy="-3756.255" r="12.0000278184555" stroke="black" stroke-linecap="round" stroke-linejoin="round" stroke-width=".2500004"/>
        </g>
        <g id="Group_8942">
          <title>stamp</title>
          <g id="Graphic_8943">
            <path d="M -861.4467 -3754.6994 L -858.5533 -3754.6994 L -859.1678 -3757.1494 C -859.4322 -3757.0794 -859.7122 -3757.0328 -860 -3757.0328 C -860.2878 -3757.0328 -860.5678 -3757.0717 -860.8322 -3757.1494 L -861.4467 -3754.6994 Z M -862.2478 -3754.6994 L -861.5633 -3757.4528 C -862.4889 -3757.9894 -863.1111 -3758.9928 -863.1111 -3760.144 C -863.1111 -3761.8628 -861.7189 -3763.255 -860 -3763.255 C -858.2811 -3763.255 -856.8889 -3761.8628 -856.8889 -3760.144 C -856.8889 -3758.9928 -857.5111 -3757.9894 -858.4367 -3757.4528 L -857.7522 -3754.6994 L -854.9445 -3754.6994 C -853.8711 -3754.6994 -853 -3753.8283 -853 -3752.755 L -853 -3751.1994 C -853 -3750.9817 -853.1711 -3750.8105 -853.3889 -3750.8105 L -866.6111 -3750.8105 C -866.8289 -3750.8105 -867 -3750.9817 -867 -3751.1994 L -867 -3752.755 C -867 -3753.8283 -866.1289 -3754.6994 -865.0556 -3754.6994 Z M -860 -3757.8105 C -858.7089 -3757.8105 -857.6667 -3758.8528 -857.6667 -3760.144 C -857.6667 -3761.435 -858.7089 -3762.477 -860 -3762.477 C -861.2911 -3762.477 -862.3333 -3761.435 -862.3333 -3760.144 C -862.3333 -3758.8528 -861.2911 -3757.8105 -860 -3757.8105 Z M -853.7778 -3751.5883 L -853.7778 -3752.755 C -853.7778 -3753.4005 -854.2989 -3753.9217 -854.9445 -3753.9217 L -865.0556 -3753.9217 C -865.7011 -3753.9217 -866.2222 -3753.4005 -866.2222 -3752.755 L -866.2222 -3751.5883 Z M -866.6111 -3749.255 C -866.8289 -3749.255 -867 -3749.426 -867 -3749.644 C -867 -3749.8617 -866.8289 -3750.0328 -866.6111 -3750.0328 L -853.3889 -3750.0328 C -853.1711 -3750.0328 -853 -3749.8617 -853 -3749.644 C -853 -3749.426 -853.1711 -3749.255 -853.3889 -3749.255 Z" fill="#66727e"/>
          </g>
        </g>
      </g>
    </g>
  </g>
</svg>
